X: 23956
T: Lochiel's Awa' Tae France
R: reel
M: 4/4
K: Adorian
|:fg|eA A/A/A e/f/e dc|BG ~G2 Bcdg|eA A/A/A e2 dc|BGAG g/a/g:|
e/f/g|dega b/b/b ab|gd d/d/d gd B/c/d|dega bgab|ge e/e/e g2 eg|
d2 e/f/g bgaf|gd d/d/d g2 ga|bgag d/d/d gd|BA A/A/A g2||

